svgs/keepass2android.svg

<svg xmlns="http://www.w3.org/2000/svg" viewBox="0 0 192 192"><path d="M49.438 81.293c0-3.073 1.014-6.057 2.876-8.459 1.861-2.402 4.461-4.082 7.371-4.763a12.823 12.823 0 0 1 8.646 1.014c2.686 1.337 4.853 3.576 6.143 6.348a13.926 13.926 0 0 1 .956 8.908c-.671 2.994-2.31 5.667-4.648 7.576a12.925 12.925 0 0 1-8.223 2.935c-3.482-.012-6.822-1.446-9.281-3.987-2.458-2.541-3.841-5.985-3.84-9.572Zm79.932 13.559c-3.491 0-6.841-1.43-9.309-3.971-2.468-2.542-3.856-5.993-3.856-9.588 0-3.595 1.388-7.046 3.856-9.588 2.468-2.542 5.818-3.971 9.309-3.971 3.49 0 6.841 1.429 9.309 3.971 2.468 2.542 3.855 5.993 3.855 9.588 0 2.38-.608 4.718-1.763 6.779a13.37 13.37 0 0 1-4.819 4.963 12.873 12.873 0 0 1-6.582 1.817Zm-33.405 29.724a10.98 10.98 0 0 1 6.555 2.141 11.513 11.513 0 0 1 4.102 5.685c.754 2.291.789 4.77.1 7.082a11.533 11.533 0 0 1-3.939 5.806l5.317 19.036H83.786l5.275-19.036a11.586 11.586 0 0 1-3.879-5.832 11.904 11.904 0 0 1 .139-7.067 11.554 11.554 0 0 1 4.105-5.666 11.012 11.012 0 0 1 6.539-2.149Z" fill="none" stroke="#000" stroke-width="8" stroke-linecap="round" stroke-linejoin="round"/><path d="M16.676 115.036v51.631a8.77 8.77 0 0 0 1.027 4.396 8.466 8.466 0 0 0 3.056 3.246 8.14 8.14 0 0 0 4.236 1.191h141.939a8.456 8.456 0 0 0 6.065-2.587 8.971 8.971 0 0 0 2.512-6.246v-51.631m-15.223-64.439 11.063-11.306c2.419-2.501 3.777-5.892 3.772-9.422-.005-3.53-1.372-6.917-3.799-9.41-2.426-2.493-5.718-3.893-9.145-3.89-3.427.003-6.716 1.409-9.138 3.907l-10.935 11.483c-13.427-9.971-29.567-15.338-46.12-15.338-16.553 0-32.693 5.367-46.12 15.338l-11.02-11.351c-2.495-2.543-5.84-4.012-9.349-4.107a12.594 12.594 0 0 0-7.228 2.206 13.167 13.167 0 0 0-4.787 5.999 13.616 13.616 0 0 0-.701 7.732 13.367 13.367 0 0 0 3.625 6.808l11.235 11.307c-9.709 13.888-14.918 30.586-14.88 47.7v16.783h158.664V98.253c-.092-17.121-5.387-33.79-15.137-47.656ZM75.081 81.514a13.191 13.191 0 0 1-2.718 8.083 12.534 12.534 0 0 1-7.021 4.57 12.23 12.23 0 0 1-8.255-.939c-2.568-1.267-4.643-3.397-5.883-6.038a13.298 13.298 0 0 1-.94-8.499 12.998 12.998 0 0 1 4.414-7.247 12.34 12.34 0 0 1 7.839-2.827c3.316-.012 6.505 1.329 8.866 3.728 2.361 2.398 3.707 5.665 3.741 9.08Zm54.246 12.896c-3.32 0-6.507-1.359-8.854-3.777-2.348-2.418-3.668-5.7-3.668-9.119 0-3.419 1.32-6.702 3.668-9.12 2.347-2.417 5.534-3.777 8.854-3.777 3.319 0 6.507 1.36 8.854 3.777 2.347 2.418 3.667 5.701 3.667 9.12-.022 3.396-1.346 6.649-3.682 9.046-2.336 2.398-5.499 3.75-8.796 3.762ZM16.676 144.451h59.048m40.481 0h59.091" fill="none" stroke="#000" stroke-width="12" stroke-linecap="round" stroke-linejoin="round"/></svg>

<svg
    xmlns="http://www.w3.org/2000/svg"
    viewBox="0 0 192 192"
    id="vector">
    <path
        id="path"
        d="M 49.438 81.293 C 49.438 78.22 50.452 75.236 52.314 72.834 C 54.175 70.432 56.775 68.752 59.685 68.071 C 62.595 67.39 65.644 67.748 68.331 69.085 C 71.017 70.422 73.184 72.661 74.474 75.433 C 75.764 78.204 76.101 81.346 75.43 84.341 C 74.759 87.335 73.12 90.008 70.782 91.917 C 68.444 93.827 65.543 94.862 62.559 94.852 C 59.077 94.84 55.737 93.406 53.278 90.865 C 50.82 88.324 49.437 84.88 49.438 81.293 Z M 129.37 94.852 C 125.879 94.852 122.529 93.422 120.061 90.881 C 117.593 88.339 116.205 84.888 116.205 81.293 C 116.205 77.698 117.593 74.247 120.061 71.705 C 122.529 69.163 125.879 67.734 129.37 67.734 C 132.86 67.734 136.211 69.163 138.679 71.705 C 141.147 74.247 142.534 77.698 142.534 81.293 C 142.534 83.673 141.926 86.011 140.771 88.072 C 139.615 90.134 137.953 91.845 135.952 93.035 C 133.951 94.225 131.68 94.852 129.37 94.852 Z M 95.965 124.576 C 98.313 124.564 100.607 125.313 102.52 126.717 C 104.432 128.122 105.868 130.111 106.622 132.402 C 107.376 134.693 107.411 137.172 106.722 139.484 C 106.033 141.797 104.655 143.829 102.783 145.29 L 108.1 164.326 L 83.786 164.326 L 89.061 145.29 C 87.209 143.811 85.853 141.771 85.182 139.458 C 84.512 137.145 84.56 134.673 85.321 132.391 C 86.082 130.108 87.518 128.126 89.426 126.725 C 91.334 125.324 93.621 124.572 95.965 124.576 Z"
        fill="none"
        stroke="#000000"
        stroke-width="8"
        stroke-linecap="round"
        stroke-linejoin="round"/>
    <path
        id="path_1"
        d="M 16.676 115.036 L 16.676 166.667 C 16.63 168.2 16.984 169.719 17.703 171.063 C 18.421 172.407 19.477 173.528 20.759 174.309 C 22.042 175.089 23.505 175.501 24.995 175.5 L 166.934 175.5 C 169.208 175.5 171.391 174.569 172.999 172.913 C 174.607 171.257 175.511 169.009 175.511 166.667 L 175.511 115.036 M 160.288 50.597 L 171.351 39.291 C 173.77 36.79 175.128 33.399 175.123 29.869 C 175.118 26.339 173.751 22.952 171.324 20.459 C 168.898 17.966 165.606 16.566 162.179 16.569 C 158.752 16.572 155.463 17.978 153.041 20.476 L 142.106 31.959 C 128.679 21.988 112.539 16.621 95.986 16.621 C 79.433 16.621 63.293 21.988 49.866 31.959 L 38.846 20.608 C 36.351 18.065 33.006 16.596 29.497 16.501 C 26.928 16.476 24.41 17.245 22.269 18.707 C 20.127 20.169 18.46 22.259 17.482 24.706 C 16.504 27.153 16.259 29.847 16.781 32.438 C 17.302 35.029 18.565 37.401 20.406 39.246 L 31.641 50.553 C 21.932 64.441 16.723 81.139 16.761 98.253 L 16.761 115.036 L 175.425 115.036 L 175.425 98.253 C 175.333 81.132 170.038 64.463 160.288 50.597 Z M 75.081 81.514 C 75.091 84.447 74.132 87.298 72.363 89.597 C 70.594 91.895 68.117 93.507 65.342 94.167 C 62.567 94.827 59.655 94.496 57.087 93.228 C 54.519 91.961 52.444 89.831 51.204 87.19 C 49.965 84.549 49.633 81.551 50.264 78.691 C 50.895 75.83 52.452 73.274 54.678 71.444 C 56.904 69.614 59.669 68.617 62.517 68.617 C 65.833 68.605 69.022 69.946 71.383 72.345 C 73.744 74.743 75.09 78.01 75.124 81.425 Z M 129.327 94.41 C 126.007 94.41 122.82 93.051 120.473 90.633 C 118.125 88.215 116.805 84.933 116.805 81.514 C 116.805 78.095 118.125 74.812 120.473 72.394 C 122.82 69.977 126.007 68.617 129.327 68.617 C 132.646 68.617 135.834 69.977 138.181 72.394 C 140.528 74.812 141.848 78.095 141.848 81.514 C 141.826 84.91 140.502 88.163 138.166 90.56 C 135.83 92.958 132.667 94.31 129.37 94.322 Z M 16.676 144.451 L 75.724 144.451 M 116.205 144.451 L 175.296 144.451"
        fill="none"
        stroke="#000000"
        stroke-width="12"
        stroke-linecap="round"
        stroke-linejoin="round"/>
</svg>
